Adwaita++/apps/scalable/anjuta.svg

<svg enable-background="new" height="128" viewBox="0 0 128 128" width="128" xmlns="http://www.w3.org/2000/svg">
  <linearGradient gradientTransform="matrix(2.6867489 0 0 2.6461895 -4.194645 169.60743)" gradientUnits="userSpaceOnUse" x1="19.815374" x2="28.057186" y1="27.354326" y2="27.354326">
    <stop offset="0" stop-color="#fff" stop-opacity=".141176"/>
    <stop offset="1" stop-color="#fff" stop-opacity=".957143"/>
  </linearGradient>
  <g transform="matrix(.86666673 0 0 .86666673 9.533387 -142.40002)">
    <path d="m132.07686 238.15385a69.230763 69.230763 0 0 1 -69.23076 69.23077 69.230763 69.230763 0 0 1 -69.2307765-69.23077 69.230763 69.230763 0 0 1 69.2307765-69.23076 69.230763 69.230763 0 0 1 69.23076 69.23076z" fill="#38352e" opacity=".2"/>
    <rect fill="#d5d3cf" height="131.53847" rx="64.615387" width="129.23077" x="-1.769221" y="171.23077"/>
    <path d="m132.07686 235.84616a69.230763 69.230763 0 0 1 -69.23076 69.23076 69.230763 69.230763 0 0 1 -69.2307765-69.23076 69.230763 69.230763 0 0 1 69.2307765-69.23077 69.230763 69.230763 0 0 1 69.23076 69.23077z" fill="#47294f"/>
    <circle cx="62.8461" cy="235.84615" fill="#f2eef7" r="62.307693"/>
    <path d="m62.846215 173.53847a62.307692 62.307692 0 0 0 -62.30769159 62.30769 62.307692 62.307692 0 0 0 .04789 1.35104 62.307692 62.307692 0 0 1 62.25980659-61.35104 62.307692 62.307692 0 0 1 62.2598 60.95553 62.307692 62.307692 0 0 0 .0479-.95553 62.307692 62.307692 0 0 0 -62.307701-62.30769z" opacity=".1"/>
    <g fill-rule="evenodd">
      <path d="m64.359375 4.8632812c-.097931.0220241-.129563.1190751-.080078.3046876.172972.6488054.291296 1.7356855.398437 2.8652343.431258 4.5465639.259832 12.4522369-1.341796 21.1855469-4.544413-2.086127-6.744877-1.211627-12.19336.351562-3.685051-4.376168-6.25974-12.80722-8.064453-17.294921-.747278-1.858223-1.398958-3.1929-1.884766-3.041016-.757135.2367164-1.415805 2.219877-1.855468 4.738281-.567315 3.249595-.739567 7.483433.037109 10.996094.334252 1.511692 2.183053 5.128517 2.910156 6.542969.72711 1.414435 1.210624 2.711091 1.634766 3.359375-3.938487 4.184405-7.376516 5.087019-9.451172 9.90039-4.377069 10.155196-8.028114 42.999034-13.462891 49.822266a54.000006 54.000006 0 0 0 .695313.972656 54.000006 54.000006 0 0 0 3.5625 4.056641 54.000006 54.000006 0 0 0 3.949219 3.677733 54.000006 54.000006 0 0 0 4.296875 3.26758 54.000006 54.000006 0 0 0 4.601562 2.82031 54.000006 54.000006 0 0 0 4.859375 2.34766 54.000006 54.000006 0 0 0 5.070313 1.85156 54.000006 54.000006 0 0 0 5.230468 1.33594 54.000006 54.000006 0 0 0 5.337891.80664 54.000006 54.000006 0 0 0 5.390625.26953 54.000006 54.000006 0 0 0 3.820312-.13477 54.000006 54.000006 0 0 0 5.357422-.65039 54.000006 54.000006 0 0 0 1.451172-.32617c-9.47618-5.68349-9.726239-23.129336-8.53125-34.578123.932246-2.309546 2.28921-3.074808 5.763672-3.263672 4.508934.130893 8.474433 1.435566 11.322266 3.792969 2.847828 2.357429 5.21227 4.479027 11.271484 7.425781 6.059212 2.946754 12.664722 3.648636 17.085942-.707031.00865-.008522.01285-.022695.02148-.03125 2.24696-2.22738 3.67811-5.627745 3.95898-9.382813.20755-2.77474-.13759-5.720636-1.61718-8.61914-1.75367-3.435415-12.42158-6.467001-17.087894-11.669922-5.270794-5.876885-7.841722-15.338426-12.722656-20.509766-1.905386-2.018761-6.449536-.367283-9.089844-1.591797-.736848-2.294188-1.314146-4.899978-.908203-8.662109.430199-3.986936 1.526083-8.614941 0-12.023438-.835365-1.865804-3.244286-4.641351-5.466797-6.8378902-1.841852-1.8203289-3.554041-3.2498254-4.15039-3.3652344-.046999-.0090954-.086497-.0092945-.119141-.0019532z" fill="#73667f" transform="matrix(1.1538461 0 0 1.1538461 -11.000061 164.3077)"/>
      <path d="m49.380133 236.74032c.04725 4.65785-2.634443 7.06425 1.608893 11.9379 4.919164 5.64987 8.565645 3.37955 20.300329 3.04704 12.451799-.35451 16.140282 10.6574 31.008135 14.4098-13.563153-7.93639-11.140645-12.42765-23.24444-16.27029-11.725907-1.21943-20.804352-.42919-24.31673-4.01688-2.813715-2.87407-4.250945-6.29049-5.356187-9.10757z" fill-opacity=".338095"/>
    </g>
  </g>
</svg>

<?xml version="1.0" encoding="UTF-8" standalone="no"?>
<svg
   xmlns:dc="http://purl.org/dc/elements/1.1/"
   xmlns:cc="http://creativecommons.org/ns#"
   xmlns:rdf="http://www.w3.org/1999/02/22-rdf-syntax-ns#"
   xmlns:svg="http://www.w3.org/2000/svg"
   xmlns="http://www.w3.org/2000/svg"
   xmlns:xlink="http://www.w3.org/1999/xlink"
   xmlns:sodipodi="http://sodipodi.sourceforge.net/DTD/sodipodi-0.dtd"
   xmlns:inkscape="http://www.inkscape.org/namespaces/inkscape"
   width="128"
   height="128"
   id="svg11300"
   version="1.0"
   style="display:inline;enable-background:new"
   viewBox="0 0 128 128"
   sodipodi:docname="Anjuta.svg"
   inkscape:version="0.92.3 (2405546, 2018-03-11)">
  <sodipodi:namedview
     pagecolor="#ffffff"
     bordercolor="#666666"
     borderopacity="1"
     objecttolerance="10"
     gridtolerance="10"
     guidetolerance="10"
     inkscape:pageopacity="0"
     inkscape:pageshadow="2"
     inkscape:window-width="1609"
     inkscape:window-height="815"
     id="namedview49"
     showgrid="false"
     inkscape:zoom="5.254098"
     inkscape:cx="64.000004"
     inkscape:cy="65.000001"
     inkscape:window-x="0"
     inkscape:window-y="34"
     inkscape:window-maximized="0"
     inkscape:current-layer="layer9" />
  <title
     id="title4162">Adwaita Icon Template</title>
  <defs
     id="defs3">
    <linearGradient
       id="linearGradient1672">
      <stop
         id="stop1668"
         offset="0"
         style="stop-color:#ffffff;stop-opacity:0.14117648" />
      <stop
         id="stop1670"
         offset="1"
         style="stop-color:#ffffff;stop-opacity:0.95714283" />
    </linearGradient>
    <linearGradient
       id="linearGradient950">
      <stop
         id="stop946"
         offset="0"
         style="stop-color:#9a9996;stop-opacity:1" />
      <stop
         id="stop948"
         offset="1"
         style="stop-color:#77767b;stop-opacity:1" />
    </linearGradient>
    <linearGradient
       xlink:href="#linearGradient950"
       id="linearGradient1001"
       gradientUnits="userSpaceOnUse"
       gradientTransform="matrix(1.8293937,-0.81599442,0.81599442,1.8293937,-3645.9624,100.02949)"
       x1="1660.8571"
       y1="806.29718"
       x2="1662.9901"
       y2="812.88245" />
    <clipPath
       id="clipPath5154"
       clipPathUnits="userSpaceOnUse">
      <circle
         style="fill:url(#radialGradient5158);fill-opacity:1;stroke:none"
         id="circle5156"
         cx="128"
         cy="924.36218"
         r="109.64706" />
    </clipPath>
    <clipPath
       id="clipPath977"
       clipPathUnits="userSpaceOnUse">
      <circle
         style="fill:url(#radialGradient5158);fill-opacity:1;stroke:none"
         id="circle975"
         cx="128"
         cy="924.36218"
         r="109.64706" />
    </clipPath>
    <clipPath
       id="clipPath4688"
       clipPathUnits="userSpaceOnUse">
      <path
         style="color:#000000;font-style:normal;font-variant:normal;font-weight:normal;font-stretch:normal;font-size:medium;line-height:normal;font-family:sans-serif;text-indent:0;text-align:start;text-decoration:none;text-decoration-line:none;letter-spacing:normal;word-spacing:normal;text-transform:none;writing-mode:lr-tb;direction:ltr;baseline-shift:baseline;text-anchor:start;display:inline;overflow:visible;visibility:visible;fill:url(#radialGradient4692);fill-opacity:1;fill-rule:nonzero;stroke:#a7003f;stroke-width:1;stroke-linecap:round;stroke-linejoin:round;stroke-miterlimit:4;stroke-dasharray:none;stroke-dashoffset:0;stroke-opacity:1;enable-background:accumulate"
         d="m 106.42383,889.60156 c -2.2448,-0.0524 -4.09304,1.75264 -4.09375,3.99805 v 32.64453 32.64453 c -4e-5,3.07923 3.33305,5.004 6,3.46485 l 28.26953,-16.32227 28.27148,-16.32227 c 2.66559,-1.54001 2.66559,-5.38772 0,-6.92773 l -28.27148,-16.32227 -28.26953,-16.32226 c -0.58054,-0.3353 -1.23603,-0.51932 -1.90625,-0.53516 z"
         id="path4690" />
    </clipPath>
    <clipPath
       id="clipPath4564"
       clipPathUnits="userSpaceOnUse">
      <circle
         r="109.64706"
         cy="924.36218"
         cx="128"
         id="circle4566"
         style="fill:url(#radialGradient4568);fill-opacity:1;stroke:none" />
    </clipPath>
    <clipPath
       id="clipPath6215"
       clipPathUnits="userSpaceOnUse">
      <path
         style="fill:url(#radialGradient6219);fill-opacity:1;stroke:none"
         d="m 105.17325,806.18572 c -3.06859,0.56361 -6.11393,1.24721 -9.129005,2.04923 -3.838255,1.06506 -7.62084,2.32142 -11.333578,3.76438 -3.712189,1.44307 -7.34989,3.07087 -10.899472,4.87732 -3.549153,1.80656 -7.005749,3.78947 -10.35684,5.94129 -3.351877,2.15253 -6.593991,4.47137 -9.714191,6.94783 -3.119992,2.47544 -6.114241,5.10535 -8.971529,7.87988 -0.367219,0.38909 -0.731819,0.78065 -1.093777,1.17464 2.60205,17.85956 16.832359,40.03752 30.863064,55.74236 -4.76734,8.84435 -7.265993,18.73329 -7.272057,28.78068 0.02104,2.87431 0.246096,5.7435 0.673482,8.58593 -20.257302,-9.18513 -43.077023,-26.53494 -52.798465,-47.36396 -0.440667,1.15171 -0.863474,2.31018 -1.268271,3.47498 -1.176789,3.80495 -2.162562,7.66637 -2.953625,11.56979 -0.79154,3.90311 -1.3874065,7.84335 -1.7853678,11.80598 -0.39733,3.96334 -0.5961891,7.94407 -0.5958321,11.92728 -4.394e-4,2.81936 0.098928,5.63785 0.2979155,8.45018 0.282275,3.97319 0.763088,7.92978 1.4406374,11.85493 0.625626,3.51826 1.408798,7.00668 2.347153,10.45473 16.778133,6.68355 43.114514,5.45001 63.748015,1.14301 6.818545,11.02763 16.987182,19.58379 29.018153,24.41667 -18.071844,12.93645 -44.490188,24.02095 -67.37308,22.03245 1.384097,1.665 2.813203,3.2921 4.285735,4.8794 2.774977,2.8571 5.691103,5.5737 8.737453,8.1395 3.046107,2.5658 6.218619,4.9777 9.505651,7.2266 3.287242,2.2488 6.684891,4.3319 10.180217,6.2413 3.495379,1.9096 7.084075,3.6433 10.752641,5.1944 3.66896,1.5509 7.413193,2.9174 11.218668,4.0942 1.438565,0.3959 2.884421,0.7648 4.336807,1.1066 14.138748,-11.1844 26.206378,-34.5828 32.780368,-54.56406 12.95816,-0.38251 25.45395,-4.90132 35.65955,-12.89544 2.15922,22.12638 -1.46693,50.5581 -14.64692,69.3832 3.06859,-0.5636 6.11393,-1.2473 9.129,-2.0493 3.83826,-1.0651 7.62084,-2.3214 11.33358,-3.7644 3.71219,-1.4431 7.34989,-3.0709 10.89947,-4.8773 3.54915,-1.8066 7.00575,-3.7895 10.35684,-5.9413 3.35188,-2.1525 6.59399,-4.4714 9.71419,-6.9478 3.11999,-2.4754 6.11424,-5.1054 8.97153,-7.8799 0.36722,-0.3891 0.73182,-0.7806 1.09378,-1.1746 -2.60204,-17.85957 -16.83236,-40.03755 -30.86307,-55.74238 4.76735,-8.84435 7.266,-18.7333 7.27207,-28.78069 -0.021,-2.8743 -0.24611,-5.74349 -0.6735,-8.58592 20.25731,9.18513 43.07704,26.53494 52.79848,47.36396 0.44067,-1.15171 0.86347,-2.31018 1.26827,-3.47499 1.17679,-3.80495 2.16256,-7.66636 2.95362,-11.56978 0.79154,-3.90311 1.38741,-7.84335 1.78537,-11.80598 0.39733,-3.96334 0.59619,-7.94408 0.59583,-11.92729 4.4e-4,-2.81936 -0.0989,-5.63784 -0.29791,-8.45017 -0.28228,-3.97319 -0.76309,-7.92978 -1.44064,-11.85493 -0.62776,-3.53416 -1.41449,-7.03823 -2.35779,-10.50154 -20.56165,-7.32804 -45.89823,-4.79548 -63.74906,-1.11372 -6.81835,-11.01918 -16.98234,-19.56874 -29.00647,-24.39915 18.07184,-12.93645 44.49019,-24.02091 67.37307,-22.03241 -1.38409,-1.66502 -2.8132,-3.2921 -4.28573,-4.87944 -2.77498,-2.85712 -5.6911,-5.57368 -8.73745,-8.13949 -3.04611,-2.56581 -6.21862,-4.97769 -9.50565,-7.22659 -3.28724,-2.24885 -6.68489,-4.3319 -10.18022,-6.24135 -3.49538,-1.90963 -7.08407,-3.64325 -10.75264,-5.19438 -3.66896,-1.55092 -7.41319,-2.91736 -11.21867,-4.09421 -1.42662,-0.39262 -2.86041,-0.75869 -4.30063,-1.09804 -14.14688,11.18369 -26.2293,34.57475 -32.8107,54.55552 -12.96018,0.38127 -25.4582,4.90015 -35.665394,12.89544 -2.15922,-22.12637 1.466931,-50.55807 14.646924,-69.38315 z"
         id="path6217" />
    </clipPath>
    <linearGradient
       gradientUnits="userSpaceOnUse"
       y2="96.575111"
       x2="-23.944006"
       y1="57.577465"
       x1="-62.374313"
       id="linearGradient11000"
       xlink:href="#linearGradient745"
       gradientTransform="matrix(1.270088,0,0,1.4336094,-29.972425,108.82772)" />
    <linearGradient
       id="linearGradient745">
      <stop
         id="stop746"
         offset="0.0000000"
         style="stop-color:#ffffff;stop-opacity:1.0000000;" />
      <stop
         id="stop747"
         offset="1.0000000"
         style="stop-color:#d9cce6;stop-opacity:1.0000000;" />
    </linearGradient>
    <linearGradient
       gradientTransform="matrix(2.1579446,0,0,2.3612412,-7.3577454,162.87911)"
       gradientUnits="userSpaceOnUse"
       xlink:href="#linearGradient563"
       id="linearGradient5031"
       y2="49.820267"
       x2="43.830559"
       y1="2.9783683"
       x1="27.310438" />
    <linearGradient
       id="linearGradient563">
      <stop
         id="stop564"
         offset="0.0000000"
         style="stop-color:#d9cce6;stop-opacity:1.0000000;" />
      <stop
         id="stop565"
         offset="1.0000000"
         style="stop-color:#73667f;stop-opacity:1.0000000;" />
    </linearGradient>
    <linearGradient
       id="linearGradient3179">
      <stop
         style="stop-color:#0c0000;stop-opacity:0.14102565;"
         offset="0"
         id="stop3181" />
      <stop
         style="stop-color:#000000;stop-opacity:0.35897437;"
         offset="1"
         id="stop3183" />
    </linearGradient>
    <linearGradient
       gradientUnits="userSpaceOnUse"
       y2="27.354326"
       x2="28.057186"
       y1="27.354326"
       x1="19.815374"
       id="linearGradient3177"
       xlink:href="#linearGradient1672"
       gradientTransform="matrix(2.6867489,0,0,2.6461895,-4.1946454,169.60743)" />
    <linearGradient
       id="linearGradient5161">
      <stop
         id="stop5163"
         offset="0"
         style="stop-color:#ffffff;stop-opacity:1;" />
      <stop
         id="stop5165"
         offset="1"
         style="stop-color:#ffffff;stop-opacity:0.38431373;" />
    </linearGradient>
  </defs>
  <metadata
     id="metadata4">
    <rdf:RDF>
      <cc:Work
         rdf:about="">
        <dc:format>image/svg+xml</dc:format>
        <dc:type
           rdf:resource="http://purl.org/dc/dcmitype/StillImage" />
        <dc:creator>
          <cc:Agent>
            <dc:title>GNOME Design Team</dc:title>
          </cc:Agent>
        </dc:creator>
        <dc:source />
        <cc:license
           rdf:resource="http://creativecommons.org/licenses/by-sa/4.0/" />
        <dc:title>Adwaita Icon Template</dc:title>
        <dc:subject>
          <rdf:Bag />
        </dc:subject>
        <dc:date />
        <dc:rights>
          <cc:Agent>
            <dc:title />
          </cc:Agent>
        </dc:rights>
        <dc:publisher>
          <cc:Agent>
            <dc:title />
          </cc:Agent>
        </dc:publisher>
        <dc:identifier />
        <dc:relation />
        <dc:language />
        <dc:coverage />
        <dc:description />
        <dc:contributor>
          <cc:Agent>
            <dc:title />
          </cc:Agent>
        </dc:contributor>
      </cc:Work>
      <cc:License
         rdf:about="http://creativecommons.org/licenses/by-sa/4.0/">
        <cc:permits
           rdf:resource="http://creativecommons.org/ns#Reproduction" />
        <cc:permits
           rdf:resource="http://creativecommons.org/ns#Distribution" />
        <cc:requires
           rdf:resource="http://creativecommons.org/ns#Notice" />
        <cc:requires
           rdf:resource="http://creativecommons.org/ns#Attribution" />
        <cc:permits
           rdf:resource="http://creativecommons.org/ns#DerivativeWorks" />
        <cc:requires
           rdf:resource="http://creativecommons.org/ns#ShareAlike" />
      </cc:License>
    </rdf:RDF>
  </metadata>
  <g
     id="layer1"
     style="display:inline"
     transform="matrix(0.86666673,0,0,0.86666673,9.5333867,-142.40002)">
    <g
       id="layer9"
       style="display:inline">
      <path
         style="display:inline;opacity:0.2;fill:#38352e;fill-opacity:1;stroke:none;stroke-width:0.01303641px;stroke-linecap:butt;stroke-linejoin:miter;stroke-miterlimit:4;stroke-dasharray:none;stroke-dashoffset:0;stroke-opacity:1;marker:none;marker-start:none;marker-mid:none;marker-end:none;paint-order:normal;enable-background:new"
         d="M 132.07686,238.15385 A 69.230763,69.230763 0 0 1 62.8461,307.38462 69.230763,69.230763 0 0 1 -6.3846765,238.15385 69.230763,69.230763 0 0 1 62.8461,168.92309 a 69.230763,69.230763 0 0 1 69.23076,69.23076 z"
         id="path945" />
      <rect
         ry="64.615387"
         rx="64.615387"
         y="171.23077"
         x="-1.7692209"
         height="131.53847"
         width="129.23077"
         id="rect978"
         style="display:inline;opacity:1;fill:#d5d3cf;fill-opacity:1;stroke:none;stroke-width:0.01303641px;stroke-linecap:butt;stroke-linejoin:miter;stroke-miterlimit:4;stroke-dasharray:none;stroke-dashoffset:0;stroke-opacity:1;marker:none;marker-start:none;marker-mid:none;marker-end:none;paint-order:normal;enable-background:new" />
      <path
         id="path981"
         d="M 132.07686,235.84616 A 69.230763,69.230763 0 0 1 62.8461,305.07692 69.230763,69.230763 0 0 1 -6.3846765,235.84616 69.230763,69.230763 0 0 1 62.8461,166.61539 a 69.230763,69.230763 0 0 1 69.23076,69.23077 z"
         style="display:inline;opacity:1;fill:#47294f;fill-opacity:1;stroke:none;stroke-width:0.01303641px;stroke-linecap:butt;stroke-linejoin:miter;stroke-miterlimit:4;stroke-dasharray:none;stroke-dashoffset:0;stroke-opacity:1;marker:none;marker-start:none;marker-mid:none;marker-end:none;paint-order:normal;enable-background:new" />
      <circle
         cy="235.84615"
         cx="62.8461"
         id="circle983"
         style="display:inline;opacity:1;fill:#f2eef7;fill-opacity:1;stroke:none;stroke-width:0.01303641px;stroke-linecap:butt;stroke-linejoin:miter;stroke-miterlimit:4;stroke-dasharray:none;stroke-dashoffset:0;stroke-opacity:1;marker:none;marker-start:none;marker-mid:none;marker-end:none;paint-order:normal;enable-background:new"
         r="62.307693" />
      <path
         style="display:inline;opacity:0.1;fill:#000000;fill-opacity:1;stroke:none;stroke-width:0.01303641px;stroke-linecap:butt;stroke-linejoin:miter;stroke-miterlimit:4;stroke-dasharray:none;stroke-dashoffset:0;stroke-opacity:1;marker:none;marker-start:none;marker-mid:none;marker-end:none;paint-order:normal;enable-background:new"
         d="m 62.846215,173.53847 a 62.307692,62.307692 0 0 0 -62.30769159,62.30769 62.307692,62.307692 0 0 0 0.04789,1.35104 62.307692,62.307692 0 0 1 62.25980659,-61.35104 62.307692,62.307692 0 0 1 62.2598,60.95553 62.307692,62.307692 0 0 0 0.0479,-0.95553 62.307692,62.307692 0 0 0 -62.307701,-62.30769 z"
         id="circle1003" />
      <path
         id="path1683"
         transform="matrix(1.1538461,0,0,1.1538461,-11.000061,164.3077)"
         d="M 64.359375 4.8632812 C 64.261444 4.8853053 64.229812 4.9823563 64.279297 5.1679688 C 64.452269 5.8167742 64.570593 6.9036543 64.677734 8.0332031 C 65.108992 12.579767 64.937566 20.48544 63.335938 29.21875 C 58.791525 27.132623 56.591061 28.007123 51.142578 29.570312 C 47.457527 25.194144 44.882838 16.763092 43.078125 12.275391 C 42.330847 10.417168 41.679167 9.082491 41.193359 9.234375 C 40.436224 9.4710914 39.777554 11.454252 39.337891 13.972656 C 38.770576 17.222251 38.598324 21.456089 39.375 24.96875 C 39.709252 26.480442 41.558053 30.097267 42.285156 31.511719 C 43.012266 32.926154 43.49578 34.22281 43.919922 34.871094 C 39.981435 39.055499 36.543406 39.958113 34.46875 44.771484 C 30.091681 54.92668 26.440636 87.770518 21.005859 94.59375 A 54.000006 54.000006 0 0 0 21.701172 95.566406 A 54.000006 54.000006 0 0 0 25.263672 99.623047 A 54.000006 54.000006 0 0 0 29.212891 103.30078 A 54.000006 54.000006 0 0 0 33.509766 106.56836 A 54.000006 54.000006 0 0 0 38.111328 109.38867 A 54.000006 54.000006 0 0 0 42.970703 111.73633 A 54.000006 54.000006 0 0 0 48.041016 113.58789 A 54.000006 54.000006 0 0 0 53.271484 114.92383 A 54.000006 54.000006 0 0 0 58.609375 115.73047 A 54.000006 54.000006 0 0 0 64 116 A 54.000006 54.000006 0 0 0 67.820312 115.86523 A 54.000006 54.000006 0 0 0 73.177734 115.21484 A 54.000006 54.000006 0 0 0 74.628906 114.88867 C 65.152726 109.20518 64.902667 91.759334 66.097656 80.310547 C 67.029902 78.001001 68.386866 77.235739 71.861328 77.046875 C 76.370262 77.177768 80.335761 78.482441 83.183594 80.839844 C 86.031422 83.197273 88.395864 85.318871 94.455078 88.265625 C 100.51429 91.212379 107.1198 91.914261 111.54102 87.558594 C 111.54967 87.550072 111.55387 87.535899 111.5625 87.527344 C 113.80946 85.299964 115.24061 81.899599 115.52148 78.144531 C 115.72903 75.369791 115.38389 72.423895 113.9043 69.525391 C 112.15063 66.089976 101.48272 63.05839 96.816406 57.855469 C 91.545612 51.978584 88.974684 42.517043 84.09375 37.345703 C 82.188364 35.326942 77.644214 36.97842 75.003906 35.753906 C 74.267058 33.459718 73.68976 30.853928 74.095703 27.091797 C 74.525902 23.104861 75.621786 18.476856 74.095703 15.068359 C 73.260338 13.202555 70.851417 10.427008 68.628906 8.2304688 C 66.787054 6.4101399 65.074865 4.9806434 64.478516 4.8652344 C 64.431517 4.856139 64.392019 4.8559399 64.359375 4.8632812 z "
         style="fill:#73667f;fill-opacity:1;fill-rule:evenodd;stroke:none;stroke-width:1.87499988;stroke-linecap:round;stroke-linejoin:miter;stroke-miterlimit:4;stroke-opacity:1" />
      <path
         id="path5047"
         style="fill:#000000;fill-opacity:0.33809525;fill-rule:evenodd;stroke:url(#linearGradient3177);stroke-width:0;stroke-linecap:butt;stroke-linejoin:miter;stroke-miterlimit:4;stroke-dasharray:none;stroke-opacity:1"
         d="m 49.380133,236.74032 c 0.04725,4.65785 -2.634443,7.06425 1.608893,11.9379 4.919164,5.64987 8.565645,3.37955 20.300329,3.04704 12.451799,-0.35451 16.140282,10.6574 31.008135,14.4098 -13.563153,-7.93639 -11.140645,-12.42765 -23.24444,-16.27029 -11.725907,-1.21943 -20.804352,-0.42919 -24.31673,-4.01688 -2.813715,-2.87407 -4.250945,-6.29049 -5.356187,-9.10757 z" />
      <path
         id="path10990"
         style="opacity:1;fill:none;fill-opacity:1;fill-rule:nonzero;stroke:#060303;stroke-width:2.16346145;stroke-linecap:round;stroke-linejoin:round;stroke-miterlimit:4;stroke-dasharray:none;stroke-dashoffset:0;stroke-opacity:1" />
      <path
         id="path10992"
         style="opacity:1;fill:none;fill-opacity:1;fill-rule:nonzero;stroke:#060303;stroke-width:2.16346145;stroke-linecap:round;stroke-linejoin:round;stroke-miterlimit:4;stroke-dasharray:none;stroke-dashoffset:0;stroke-opacity:1" />
    </g>
  </g>
</svg>
